X:1
T:The White Captive
M:2/2
L:1/4
K:Bb
 F| D2 B, D| F2 D F| B2 d c| B2 B B| B2 d G| G2 A B| c2 F G| F2| F F|\
 G2G/2-F/2G/2-A/2| B2 B G/4- F3/4| F2 F/2F/2 D| C2 D- C| B,2 D F| B2 FG/2-F/2|\
 F2 B,D/2-C/2| B,2 z||

